X: 43585
T: Young Sandy Tulloch
R: reel
M: 4/4
K: Gmajor
gG (3GGG BG GG|cBAG FD D2|gG (3GGG BG GG|ABcA defd|
gG (3GGG BG GG|cBAG FD D2|GABG ABcA|(3Bcd DF G2 G:|
Bdde dBAG|Bdde d2 B2|Bdde dGBd|edcB A2 G2|
Bdde dBAG|Bdde d2 ga|bgaf gfed|(3efg dB A3:|

